components/icon/svg/24/transport_bikesharing.svg

<svg xmlns="http://www.w3.org/2000/svg" viewBox="0 0 24 24"><path fill="#3f434c" d="M18.5 11c-.3 0-.5 0-.7.1l-2-5.1h-2.3c-.3 0-.5.2-.5.5s.2.5.5.5h1.7l.6 1.7H9.5c-.1 0-.2 0-.2.1-.1 0-.1.1-.1.2l-1.3 2.3c-.5-.2-1-.3-1.4-.3C4.6 11 3 12.6 3 14.5S4.6 18 6.5 18c1.8 0 3.2-1.3 3.4-3h2.6c.1 0 .2 0 .2-.1.1 0 .1-.1.2-.1l3.4-4.8.5 1.4c-1.1.6-1.8 1.8-1.8 3.1 0 1.9 1.6 3.5 3.5 3.5s3.5-1.6 3.5-3.5-1.6-3.5-3.5-3.5zm-12 6C5.1 17 4 15.9 4 14.5S5.1 12 6.5 12c.3 0 .5.1.8.1l-1.2 2.1c-.1.2-.1.3 0 .5s.2.3.4.3h2.4c-.2 1.1-1.2 2-2.4 2zm.9-3l.8-1.4c.3.4.6.9.7 1.4H7.4zm2.5 0c-.1-.9-.6-1.7-1.3-2.3l.9-1.5 2.1 3.8H9.9zm2.6-.4l-2.2-3.9h4.9l-2.7 3.9zm6 3.4c-1.4 0-2.5-1.1-2.5-2.5 0-.9.5-1.7 1.2-2.1l.9 2.3c.1.2.3.3.5.3h.2c.3-.1.4-.4.3-.6l-1-2.4h.4c1.4 0 2.5 1.1 2.5 2.5S19.9 17 18.5 17z"/><path fill="#3f434c" d="M7.5 7c-.3 0-.5.2-.5.5s.2.5.5.5h3c.3 0 .5-.2.5-.5s-.2-.5-.5-.5h-3z"/></svg>

<?xml version="1.0" encoding="utf-8"?>
<!-- Generator: Adobe Illustrator 24.1.2, SVG Export Plug-In . SVG Version: 6.00 Build 0)  -->
<svg version="1.1" xmlns="http://www.w3.org/2000/svg" xmlns:xlink="http://www.w3.org/1999/xlink" x="0px" y="0px"
	 viewBox="0 0 24 24" style="enable-background:new 0 0 24 24;" xml:space="preserve">
<style type="text/css">
	.st0{fill:#3F434C;}
</style>
<g id="guides">
</g>
<g id="Ebene_1">
	<path class="st0" d="M18.5,11c-0.3,0-0.5,0-0.7,0.1L15.8,6h-2.3C13.2,6,13,6.2,13,6.5S13.2,7,13.5,7h1.7l0.6,1.7H9.5c0,0,0,0,0,0
		c-0.1,0-0.2,0-0.2,0.1c0,0,0,0,0,0c0,0,0,0,0,0c-0.1,0-0.1,0.1-0.1,0.2c0,0,0,0,0,0l-1.3,2.3C7.4,11.1,6.9,11,6.5,11
		C4.6,11,3,12.6,3,14.5S4.6,18,6.5,18c1.8,0,3.2-1.3,3.4-3h2.6c0.1,0,0.2,0,0.2-0.1c0,0,0,0,0,0c0.1,0,0.1-0.1,0.2-0.1c0,0,0,0,0,0
		l3.4-4.8l0.5,1.4C15.7,12,15,13.2,15,14.5c0,1.9,1.6,3.5,3.5,3.5s3.5-1.6,3.5-3.5S20.4,11,18.5,11z M6.5,17C5.1,17,4,15.9,4,14.5
		S5.1,12,6.5,12c0.3,0,0.5,0.1,0.8,0.1l-1.2,2.1c-0.1,0.2-0.1,0.3,0,0.5C6.2,14.9,6.3,15,6.5,15h2.4C8.7,16.1,7.7,17,6.5,17z
		 M7.4,14l0.8-1.4C8.5,13,8.8,13.5,8.9,14H7.4z M9.9,14c-0.1-0.9-0.6-1.7-1.3-2.3l0.9-1.5l2.1,3.8H9.9z M12.5,13.6l-2.2-3.9h4.9
		L12.5,13.6z M18.5,17c-1.4,0-2.5-1.1-2.5-2.5c0-0.9,0.5-1.7,1.2-2.1l0.9,2.3c0.1,0.2,0.3,0.3,0.5,0.3c0.1,0,0.1,0,0.2,0
		c0.3-0.1,0.4-0.4,0.3-0.6L18.1,12c0.1,0,0.3,0,0.4,0c1.4,0,2.5,1.1,2.5,2.5S19.9,17,18.5,17z"/>
	<path class="st0" d="M7.5,7C7.2,7,7,7.2,7,7.5S7.2,8,7.5,8h3C10.8,8,11,7.8,11,7.5S10.8,7,10.5,7H7.5z"/>
</g>
</svg>
